src/4-icons/check.svg

<svg width="260" height="260" viewBox="0 0 260 260" fill="none" xmlns="http://www.w3.org/2000/svg">
<path d="M114.927 176.544C114.905 176.521 114.884 176.499 114.862 176.476C114.814 176.43 114.766 176.384 114.719 176.337L68.0503 129.668C65.3166 126.934 65.3166 122.502 68.0503 119.769C70.7839 117.035 75.2161 117.035 77.9497 119.769L119.951 161.77L191.67 90.0503C194.404 87.3166 198.836 87.3166 201.57 90.0503C204.303 92.7839 204.303 97.2161 201.57 99.9497L124.901 176.619C122.167 179.352 117.735 179.352 115.001 176.619C114.976 176.594 114.951 176.569 114.927 176.544Z" fill="black"/>
<path fill-rule="evenodd" clip-rule="evenodd" d="M0 130C0 201.797 58.203 260 130 260C201.797 260 260 201.797 260 130C260 58.203 201.797 0 130 0C58.203 0 0 58.203 0 130ZM14 130C14 194.065 65.935 246 130 246C194.065 246 246 194.065 246 130C246 65.935 194.065 14 130 14C65.935 14 14 65.935 14 130Z" fill="black"/>
</svg>

<svg width="260" height="260" viewBox="0 0 260 260" fill="none" xmlns="http://www.w3.org/2000/svg"><path d="m114.927 176.544-.065-.068a9.375 9.375 0 0 1-.143-.139L68.05 129.668a7 7 0 0 1 0-9.899 7 7 0 0 1 9.9 0l42.001 42.001 71.719-71.72a7 7 0 0 1 9.9 9.9l-76.669 76.669a7.002 7.002 0 0 1-9.9 0l-.074-.075Z" fill="#000"/><path fill-rule="evenodd" clip-rule="evenodd" d="M0 130c0 71.797 58.203 130 130 130s130-58.203 130-130S201.797 0 130 0 0 58.203 0 130Zm14 0c0 64.065 51.935 116 116 116s116-51.935 116-116S194.065 14 130 14 14 65.935 14 130Z" fill="#000"/></svg>
